X:1
T:Garrett Barry's
M:6/8
L:1/8
R:jig
Z:id:hn-jig-38
K:Dmix
DEF ~G3|AGE c2A|dcA d2e|fed cAG|~F3 GFG|AGA cde|dcA GEA|1~D3 D2A:|2~D3 D2d||
|:dcA d2e| fed ~e2d| cAB c2d| (3 efg d ecA| dcA d2e| fed (3 efg e| dcA G EA|1~D3 D2d:|2~D3 D2A||
